X: 13978
T: Francie Welsh's
R: barndance
M: 4/4
K: Dmajor
[F2A2] d2 (3DFA d>f|e<^de<g [G2B2] c>B|A>Bc>d e<gB>c|(3dfe (3dcB A2 F>G|
[F2A2] d2 (3DFA d>f|e<^de>g [G2B2] c>B|A>Bc>d e<gB>c|1 d2 [F2d2] d2 D/F/G/^G/:|2 d2 [F2d2] d2||
(3ecA (3EAc e2 a>g|(3fdA (3FAd f2 a2|(3^gbg [d2f2] (3efe d2|(3cac B>c A2 F>G|
[F2A2] d2 (3DFA d>f|e<^de<g [G2B2] c>B|A>Bc>d e<gB>c|d2 [F2d2] [F2d2]||
A2 d2 DAdf|e^deg B2 cB|ABcd egBc|dfdB A2 FG|
A2 d2 D2 df|e^deg B2 cB|ABcd egBc|d2 d2 d2:|
eAEc e2 ag|fdFd f2 a2|^gb f2 eg d2|caBc A2 FG|
A2 d2 D2 d2|e^deg B2 cB|ABcd egBc|d2 d2 d2||

